X:3058
L:1/8
M:4/4
K:C
[M:6/8][K:Amin] .abc (A/B/) | cBA AGE | ABA ABc | BAG BdG | Bdg GAB | cBA AGE | ABA c2 d | 
 efe dcB | cAA A2 ::

